svg/emoji_u1f3a7.svg

<svg enable-background="new 0 0 128 128" viewBox="0 0 128 128" xmlns="http://www.w3.org/2000/svg"><radialGradient id="f" cx="64.333" cy="12.667" r="35.358" gradientUnits="userSpaceOnUse"><stop stop-color="#757575" offset="0"/><stop stop-color="#6A6A6A" offset=".3078"/><stop stop-color="#4B4B4B" offset=".8542"/><stop stop-color="#424242" offset="1"/></radialGradient><path d="M63.99,10c-14.66,0-27.89,6.07-37.34,15.83l4.46,4.46c2.15,2.15,5.58,2.36,7.96,0.46 C45.91,25.28,54.58,22,63.99,22s18.08,3.28,24.92,8.74c2.38,1.9,5.81,1.7,7.96-0.46l4.46-4.46C91.88,16.07,78.65,10,63.99,10z" fill="url(#f)"/><g opacity=".2"><path d="m63.99 13c12.38 0 24.01 4.54 33.07 12.86l-2.31 2.31c-0.57 0.57-1.32 0.88-2.12 0.88-0.47 0-1.18-0.11-1.84-0.64-7.59-6.07-17.1-9.41-26.8-9.41-9.69 0-19.21 3.34-26.79 9.4-0.53 0.42-1.16 0.64-1.84 0.64-0.8 0-1.56-0.31-2.12-0.88l-2.31-2.31c9.05-8.31 20.68-12.85 33.06-12.85m0-3c-14.66 0-27.89 6.07-37.34 15.83l4.46 4.46c1.16 1.16 2.7 1.76 4.25 1.76 1.31 0 2.62-0.43 3.72-1.3 6.83-5.47 15.5-8.75 24.91-8.75 9.42 0 18.08 3.28 24.92 8.74 1.09 0.87 2.41 1.3 3.72 1.3 1.54 0 3.08-0.59 4.25-1.76l4.46-4.46c-9.46-9.75-22.69-15.82-37.35-15.82z" fill="#eee"/></g><radialGradient id="e" cx="63.833" cy="4" r="74.893" gradientUnits="userSpaceOnUse"><stop stop-color="#40C4FF" stop-opacity=".98" offset="0"/><stop stop-color="#0091EA" offset="1"/></radialGradient><path d="M64,12.32c24.09,0,43.68,19.59,43.68,43.68v27.04H116V56c0-28.67-23.33-52-52-52 S12,27.33,12,56v27.04h8.32V56C20.32,31.91,39.91,12.32,64,12.32z" fill="url(#e)"/><g opacity=".2"><path d="M64,7c27.02,0,49,21.98,49,49v24.04h-2.32V56c0-25.74-20.94-46.68-46.68-46.68S17.32,30.26,17.32,56 v24.04H15V56C15,28.98,36.98,7,64,7 M64,4C35.33,4,12,27.33,12,56v27.04h8.32V56c0-24.09,19.59-43.68,43.68-43.68 S107.68,31.91,107.68,56v27.04H116V56C116,27.33,92.67,4,64,4L64,4z" fill="#424242"/></g><radialGradient id="d" cx="28.667" cy="68.167" r="52.032" gradientUnits="userSpaceOnUse"><stop stop-color="#40C4FF" offset="0"/><stop stop-color="#0091EA" offset=".6853"/><stop stop-color="#0091EA" offset="1"/></radialGradient><path d="m29 68c-13.25 0-25 11.64-25 26s11.75 26 25 26h12v-52h-12z" fill="url(#d)"/><g opacity=".2"><path d="m38 71v46h-9c-11.93 0-22-10.53-22-23s10.07-23 22-23h9m3-3h-12c-13.25 0-25 11.64-25 26s11.75 26 25 26h12v-52z" fill="#424242"/></g><radialGradient id="c" cx="99.333" cy="67.667" r="52.56" gradientUnits="userSpaceOnUse"><stop stop-color="#40C4FF" offset="0"/><stop stop-color="#0091EA" offset=".6853"/><stop stop-color="#0091EA" offset="1"/></radialGradient><path d="m99 68c13.25 0 25 11.64 25 26s-11.75 26-25 26h-12v-52h12z" fill="url(#c)"/><g opacity=".2"><path d="m99 71c11.93 0 22 10.53 22 23s-10.07 23-22 23h-9v-46h9m0-3h-12v52h12c13.25 0 25-11.64 25-26s-11.75-26-25-26z" fill="#424242"/></g><radialGradient id="b" cx="35.667" cy="64.167" r="59.845" gradientUnits="userSpaceOnUse"><stop stop-color="#757575" offset="0"/><stop stop-color="#6A6A6A" offset=".3078"/><stop stop-color="#4B4B4B" offset=".8542"/><stop stop-color="#424242" offset="1"/></radialGradient><path d="m37.07 124h-2.14c-3.83 0-6.93-3.1-6.93-6.93v-46.14c0-3.83 3.1-6.93 6.93-6.93h2.14c3.83 0 6.93 3.1 6.93 6.93v46.14c0 3.83-3.1 6.93-6.93 6.93z" fill="url(#b)"/><radialGradient id="a" cx="91.667" cy="64.333" r="59.53" gradientUnits="userSpaceOnUse"><stop stop-color="#757575" offset="0"/><stop stop-color="#6A6A6A" offset=".3078"/><stop stop-color="#4B4B4B" offset=".8542"/><stop stop-color="#424242" offset="1"/></radialGradient><path d="m90.93 124h2.14c3.83 0 6.93-3.1 6.93-6.93v-46.14c0-3.83-3.1-6.93-6.93-6.93h-2.14c-3.83 0-6.93 3.1-6.93 6.93v46.14c0 3.83 3.1 6.93 6.93 6.93z" fill="url(#a)"/><g opacity=".2"><path d="m37.07 67c2.17 0 3.93 1.76 3.93 3.93v46.14c0 2.17-1.76 3.93-3.93 3.93h-2.14c-2.17 0-3.93-1.76-3.93-3.93v-46.14c0-2.17 1.76-3.93 3.93-3.93h2.14m0-3h-2.14c-3.83 0-6.93 3.1-6.93 6.93v46.14c0 3.83 3.1 6.93 6.93 6.93h2.14c3.83 0 6.93-3.1 6.93-6.93v-46.14c0-3.83-3.1-6.93-6.93-6.93z" fill="#eee"/></g><path d="m44 76h-7c-0.55 0-1-0.45-1-1v-2c0-0.55 0.45-1 1-1h7v4z" fill="#616161" opacity=".2"/><path d="m44 84h-7c-0.55 0-1-0.45-1-1v-2c0-0.55 0.45-1 1-1h7v4z" fill="#616161" opacity=".2"/><path d="m44 92h-7c-0.55 0-1-0.45-1-1v-2c0-0.55 0.45-1 1-1h7v4z" fill="#616161" opacity=".2"/><path d="m44 100h-7c-0.55 0-1-0.45-1-1v-2c0-0.55 0.45-1 1-1h7v4z" fill="#616161" opacity=".2"/><path d="m44 108h-7c-0.55 0-1-0.45-1-1v-2c0-0.55 0.45-1 1-1h7v4z" fill="#616161" opacity=".2"/><path d="m44 116h-7c-0.55 0-1-0.45-1-1v-2c0-0.55 0.45-1 1-1h7v4z" fill="#616161" opacity=".2"/><path d="m84 76h7c0.55 0 1-0.45 1-1v-2c0-0.55-0.45-1-1-1h-7v4z" fill="#616161" opacity=".2"/><path d="m84 84h7c0.55 0 1-0.45 1-1v-2c0-0.55-0.45-1-1-1h-7v4z" fill="#616161" opacity=".2"/><path d="m84 92h7c0.55 0 1-0.45 1-1v-2c0-0.55-0.45-1-1-1h-7v4z" fill="#616161" opacity=".2"/><path d="m84 100h7c0.55 0 1-0.45 1-1v-2c0-0.55-0.45-1-1-1h-7v4z" fill="#616161" opacity=".2"/><path d="m84 108h7c0.55 0 1-0.45 1-1v-2c0-0.55-0.45-1-1-1h-7v4z" fill="#616161" opacity=".2"/><path d="m84 116h7c0.55 0 1-0.45 1-1v-2c0-0.55-0.45-1-1-1h-7v4z" fill="#616161" opacity=".2"/><g opacity=".2"><path d="m93.07 67c2.17 0 3.93 1.76 3.93 3.93v46.14c0 2.17-1.76 3.93-3.93 3.93h-2.14c-2.17 0-3.93-1.76-3.93-3.93v-46.14c0-2.17 1.76-3.93 3.93-3.93h2.14m0-3h-2.14c-3.83 0-6.93 3.1-6.93 6.93v46.14c0 3.83 3.1 6.93 6.93 6.93h2.14c3.83 0 6.93-3.1 6.93-6.93v-46.14c0-3.83-3.1-6.93-6.93-6.93z" fill="#eee"/></g></svg>

<svg width="128" height="128" style="enable-background:new 0 0 128 128;" xmlns="http://www.w3.org/2000/svg" xmlns:xlink="http://www.w3.org/1999/xlink">
  <radialGradient id="SVGID_1_" cx="64.3333" cy="12.6667" gradientUnits="userSpaceOnUse" r="35.3585">
    <stop offset="0" style="stop-color:#757575"/>
    <stop offset="0.3078" style="stop-color:#6A6A6A"/>
    <stop offset="0.8542" style="stop-color:#4B4B4B"/>
    <stop offset="1" style="stop-color:#424242"/>
  </radialGradient>
  <path d="M63.99,10c-14.66,0-27.89,6.07-37.34,15.83l4.46,4.46c2.15,2.15,5.58,2.36,7.96,0.46 C45.91,25.28,54.58,22,63.99,22s18.08,3.28,24.92,8.74c2.38,1.9,5.81,1.7,7.96-0.46l4.46-4.46C91.88,16.07,78.65,10,63.99,10z" style="fill:url(#SVGID_1_);"/>
  <g style="opacity:0.2;">
    <path d="M63.99,13c12.38,0,24.01,4.54,33.07,12.86l-2.31,2.31c-0.57,0.57-1.32,0.88-2.12,0.88 c-0.47,0-1.18-0.11-1.84-0.64C83.2,22.34,73.69,19,63.99,19c-9.69,0-19.21,3.34-26.79,9.4c-0.53,0.42-1.16,0.64-1.84,0.64 c-0.8,0-1.56-0.31-2.12-0.88l-2.31-2.31C39.98,17.54,51.61,13,63.99,13 M63.99,10c-14.66,0-27.89,6.07-37.34,15.83l4.46,4.46 c1.16,1.16,2.7,1.76,4.25,1.76c1.31,0,2.62-0.43,3.72-1.3C45.91,25.28,54.58,22,63.99,22c9.42,0,18.08,3.28,24.92,8.74 c1.09,0.87,2.41,1.3,3.72,1.3c1.54,0,3.08-0.59,4.25-1.76l4.46-4.46C91.88,16.07,78.65,10,63.99,10L63.99,10z" style="fill:#EEEEEE;"/>
  </g>
  <radialGradient id="SVGID_2_" cx="63.8333" cy="4" gradientUnits="userSpaceOnUse" r="74.8934">
    <stop offset="0" style="stop-color:#40C4FF;stop-opacity:0.98"/>
    <stop offset="1" style="stop-color:#0091EA"/>
  </radialGradient>
  <path d="M64,12.32c24.09,0,43.68,19.59,43.68,43.68v27.04H116V56c0-28.67-23.33-52-52-52 S12,27.33,12,56v27.04h8.32V56C20.32,31.91,39.91,12.32,64,12.32z" style="fill:url(#SVGID_2_);"/>
  <g style="opacity:0.2;">
    <path d="M64,7c27.02,0,49,21.98,49,49v24.04h-2.32V56c0-25.74-20.94-46.68-46.68-46.68S17.32,30.26,17.32,56 v24.04H15V56C15,28.98,36.98,7,64,7 M64,4C35.33,4,12,27.33,12,56v27.04h8.32V56c0-24.09,19.59-43.68,43.68-43.68 S107.68,31.91,107.68,56v27.04H116V56C116,27.33,92.67,4,64,4L64,4z" style="fill:#424242;"/>
  </g>
  <radialGradient id="SVGID_3_" cx="28.6667" cy="68.1667" gradientUnits="userSpaceOnUse" r="52.0323">
    <stop offset="0" style="stop-color:#40C4FF"/>
    <stop offset="0.6853" style="stop-color:#0091EA"/>
    <stop offset="1" style="stop-color:#0091EA"/>
  </radialGradient>
  <path d="M29,68C15.75,68,4,79.64,4,94c0,14.36,11.75,26,25,26h12V68H29z" style="fill:url(#SVGID_3_);"/>
  <g style="opacity:0.2;">
    <path d="M38,71v46h-9c-11.93,0-22-10.53-22-23s10.07-23,22-23H38 M41,68H29C15.75,68,4,79.64,4,94 c0,14.36,11.75,26,25,26h12V68L41,68z" style="fill:#424242;"/>
  </g>
  <radialGradient id="SVGID_4_" cx="99.3333" cy="67.6667" gradientUnits="userSpaceOnUse" r="52.5595">
    <stop offset="0" style="stop-color:#40C4FF"/>
    <stop offset="0.6853" style="stop-color:#0091EA"/>
    <stop offset="1" style="stop-color:#0091EA"/>
  </radialGradient>
  <path d="M99,68c13.25,0,25,11.64,25,26c0,14.36-11.75,26-25,26H87V68H99z" style="fill:url(#SVGID_4_);"/>
  <g style="opacity:0.2;">
    <path d="M99,71c11.93,0,22,10.53,22,23s-10.07,23-22,23h-9V71H99 M99,68H87v52h12c13.25,0,25-11.64,25-26 C124,79.64,112.25,68,99,68L99,68z" style="fill:#424242;"/>
  </g>
  <radialGradient id="SVGID_5_" cx="35.6667" cy="64.1667" gradientUnits="userSpaceOnUse" r="59.8447">
    <stop offset="0" style="stop-color:#757575"/>
    <stop offset="0.3078" style="stop-color:#6A6A6A"/>
    <stop offset="0.8542" style="stop-color:#4B4B4B"/>
    <stop offset="1" style="stop-color:#424242"/>
  </radialGradient>
  <path d="M37.07,124h-2.14c-3.83,0-6.93-3.1-6.93-6.93V70.93C28,67.1,31.1,64,34.93,64h2.14 C40.9,64,44,67.1,44,70.93v46.14C44,120.9,40.9,124,37.07,124z" style="fill:url(#SVGID_5_);"/>
  <radialGradient id="SVGID_6_" cx="91.6667" cy="64.3333" gradientUnits="userSpaceOnUse" r="59.5299">
    <stop offset="0" style="stop-color:#757575"/>
    <stop offset="0.3078" style="stop-color:#6A6A6A"/>
    <stop offset="0.8542" style="stop-color:#4B4B4B"/>
    <stop offset="1" style="stop-color:#424242"/>
  </radialGradient>
  <path d="M90.93,124h2.14c3.83,0,6.93-3.1,6.93-6.93V70.93c0-3.83-3.1-6.93-6.93-6.93h-2.14 C87.1,64,84,67.1,84,70.93v46.14C84,120.9,87.1,124,90.93,124z" style="fill:url(#SVGID_6_);"/>
  <g style="opacity:0.2;">
    <path d="M37.07,67c2.17,0,3.93,1.76,3.93,3.93v46.14c0,2.17-1.76,3.93-3.93,3.93h-2.14 c-2.17,0-3.93-1.76-3.93-3.93V70.93c0-2.17,1.76-3.93,3.93-3.93H37.07 M37.07,64h-2.14C31.1,64,28,67.1,28,70.93v46.14 c0,3.83,3.1,6.93,6.93,6.93h2.14c3.83,0,6.93-3.1,6.93-6.93V70.93C44,67.1,40.9,64,37.07,64L37.07,64z" style="fill:#EEEEEE;"/>
  </g>
  <path d="M44,76h-7c-0.55,0-1-0.45-1-1v-2c0-0.55,0.45-1,1-1h7V76z" style="opacity:0.2;fill:#616161;"/>
  <path d="M44,84h-7c-0.55,0-1-0.45-1-1v-2c0-0.55,0.45-1,1-1h7V84z" style="opacity:0.2;fill:#616161;"/>
  <path d="M44,92h-7c-0.55,0-1-0.45-1-1v-2c0-0.55,0.45-1,1-1h7V92z" style="opacity:0.2;fill:#616161;"/>
  <path d="M44,100h-7c-0.55,0-1-0.45-1-1v-2c0-0.55,0.45-1,1-1h7V100z" style="opacity:0.2;fill:#616161;"/>
  <path d="M44,108h-7c-0.55,0-1-0.45-1-1v-2c0-0.55,0.45-1,1-1h7V108z" style="opacity:0.2;fill:#616161;"/>
  <path d="M44,116h-7c-0.55,0-1-0.45-1-1v-2c0-0.55,0.45-1,1-1h7V116z" style="opacity:0.2;fill:#616161;"/>
  <path d="M84,76h7c0.55,0,1-0.45,1-1v-2c0-0.55-0.45-1-1-1h-7V76z" style="opacity:0.2;fill:#616161;"/>
  <path d="M84,84h7c0.55,0,1-0.45,1-1v-2c0-0.55-0.45-1-1-1h-7V84z" style="opacity:0.2;fill:#616161;"/>
  <path d="M84,92h7c0.55,0,1-0.45,1-1v-2c0-0.55-0.45-1-1-1h-7V92z" style="opacity:0.2;fill:#616161;"/>
  <path d="M84,100h7c0.55,0,1-0.45,1-1v-2c0-0.55-0.45-1-1-1h-7V100z" style="opacity:0.2;fill:#616161;"/>
  <path d="M84,108h7c0.55,0,1-0.45,1-1v-2c0-0.55-0.45-1-1-1h-7V108z" style="opacity:0.2;fill:#616161;"/>
  <path d="M84,116h7c0.55,0,1-0.45,1-1v-2c0-0.55-0.45-1-1-1h-7V116z" style="opacity:0.2;fill:#616161;"/>
  <g style="opacity:0.2;">
    <path d="M93.07,67c2.17,0,3.93,1.76,3.93,3.93v46.14c0,2.17-1.76,3.93-3.93,3.93h-2.14 c-2.17,0-3.93-1.76-3.93-3.93V70.93c0-2.17,1.76-3.93,3.93-3.93H93.07 M93.07,64h-2.14C87.1,64,84,67.1,84,70.93v46.14 c0,3.83,3.1,6.93,6.93,6.93h2.14c3.83,0,6.93-3.1,6.93-6.93V70.93C100,67.1,96.9,64,93.07,64L93.07,64z" style="fill:#EEEEEE;"/>
  </g>
</svg>
